src/sprites/svg/cart.svg

<svg xmlns="http://www.w3.org/2000/svg"><path d="M20.43 6.35c.18.22.25.49.21.81l-.85 4.9c-.03.26-.15.47-.35.63-.2.17-.43.25-.69.25H6.35l-.25 1.4h11.83a1.044 1.044 0 0 1 1.05 1.05c0 .3-.11.55-.31.76-.21.2-.46.3-.74.3H4.85c-.32 0-.58-.13-.81-.38a1.08 1.08 0 0 1-.24-.88l.56-3.06-.86-8.6-2.41-.76a1.01 1.01 0 0 1-.62-.52c-.13-.26-.15-.53-.08-.81.09-.29.27-.49.53-.62s.52-.15.79-.08l3.09.99c.2.06.36.17.48.34.13.16.21.35.24.56l.18 1.71 14.02 1.58c.31.04.55.19.71.43zM6.44 17.04c.45 0 .83.15 1.14.47.31.31.47.7.47 1.15 0 .45-.16.83-.47 1.16-.31.32-.69.48-1.14.48-.45 0-.83-.16-1.14-.48-.32-.33-.47-.71-.47-1.16 0-.45.15-.84.47-1.15.31-.32.69-.47 1.14-.47zm9.56 0c.45 0 .83.15 1.14.47.32.31.47.7.47 1.15 0 .45-.15.83-.47 1.16-.31.32-.69.48-1.14.48-.45 0-.83-.16-1.14-.48-.32-.33-.47-.71-.47-1.16 0-.45.15-.84.47-1.15.31-.32.69-.47 1.14-.47z"/></svg>

<?xml version="1.0" encoding="utf-8"?>
<svg xmlns="http://www.w3.org/2000/svg"
	xmlns:xlink="http://www.w3.org/1999/xlink"
	width="21px" height="21px" viewBox="0 0 21 21">
<path fillRule="evenodd" d="M 20.43 6.35C 20.61 6.57 20.68 6.84 20.64 7.16 20.64 7.16 19.79 12.06 19.79 12.06 19.76 12.32 19.64 12.53 19.44 12.69 19.24 12.86 19.01 12.94 18.75 12.94 18.75 12.94 6.35 12.94 6.35 12.94 6.35 12.94 6.1 14.34 6.1 14.34 6.1 14.34 17.93 14.34 17.93 14.34 18.21 14.34 18.46 14.44 18.67 14.64 18.87 14.84 18.98 15.09 18.98 15.39 18.98 15.69 18.87 15.94 18.67 16.15 18.46 16.35 18.21 16.45 17.93 16.45 17.93 16.45 4.85 16.45 4.85 16.45 4.53 16.45 4.27 16.32 4.04 16.07 3.83 15.81 3.75 15.52 3.8 15.19 3.8 15.19 4.36 12.13 4.36 12.13 4.36 12.13 3.5 3.53 3.5 3.53 3.5 3.53 1.09 2.77 1.09 2.77 0.8 2.68 0.6 2.5 0.47 2.25 0.34 1.99 0.32 1.72 0.39 1.44 0.48 1.15 0.66 0.95 0.92 0.82 1.18 0.69 1.44 0.67 1.71 0.74 1.71 0.74 4.8 1.73 4.8 1.73 5 1.79 5.16 1.9 5.28 2.07 5.41 2.23 5.49 2.42 5.52 2.63 5.52 2.63 5.7 4.34 5.7 4.34 5.7 4.34 19.72 5.92 19.72 5.92 20.03 5.96 20.27 6.11 20.43 6.35ZM 6.44 17.04C 6.89 17.04 7.27 17.19 7.58 17.51 7.89 17.82 8.05 18.21 8.05 18.66 8.05 19.11 7.89 19.49 7.58 19.82 7.27 20.14 6.89 20.3 6.44 20.3 5.99 20.3 5.61 20.14 5.3 19.82 4.98 19.49 4.83 19.11 4.83 18.66 4.83 18.21 4.98 17.82 5.3 17.51 5.61 17.19 5.99 17.04 6.44 17.04ZM 16 17.04C 16.45 17.04 16.83 17.19 17.14 17.51 17.46 17.82 17.61 18.21 17.61 18.66 17.61 19.11 17.46 19.49 17.14 19.82 16.83 20.14 16.45 20.3 16 20.3 15.55 20.3 15.17 20.14 14.86 19.82 14.54 19.49 14.39 19.11 14.39 18.66 14.39 18.21 14.54 17.82 14.86 17.51 15.17 17.19 15.55 17.04 16 17.04Z"/></svg>
